X: 6320
T: Carrigh Kerry
R: slide
M: 12/8
K: Gmajor
g2 f efg|d2 B BAB|c2 A AGA|B2 G G2 f|
g2 f efg|d2 B B2 c|A2 a def|1 g2 d e2 f:|2 g3 g2 a||
b2 g gfg|b2 g gfg|a2 f fef|a2 f d2 g|
b2 g gfg|b2 g g2 a|e2 a def|1 g3 g2 a:|2 g2 d e2 f||

